X: 21
T: Miss McLeod's
R: reel
M: 4/4
L: 1/8
K: Gmaj
|: G2BG dGBG | ABBA BcBA | G2BG dGBG | A2AG AcBA |
G2 BG dGBG| ABBA B3d | e3f edef | gedB AGEF :|
|: G2 gf efge | dBBA BcBA | G2gf efge | a2ab agef |
~g3f efge |dBBA B3 d | e3f edef | gedB AGEF :|


Tune 75	Setting 25452

